X:1
T:Toureendarby
L:1/8
M:2/4
I:linebreak $
K:D
V:1 treble 
V:1
 EA |: BE GE | BE GE | D>E FA | DE FA | BE GE | BE GE | D>E FA | GE E2 :| ef/e/ dB |$ ef/e/ dB | %11
 AF dF | AB/c/ d2 | ef/e/ dB | ef/e/ dB | AF dF | FE E2 :| %17
